static/icons/envelope.svg

<svg xmlns="http://www.w3.org/2000/svg" viewBox="0 0 20 20"><path d="M19.35 3.1h-.05a1.82 1.82 0 0 0-1.2-.45H1.83a1.79 1.79 0 0 0-1.21.46l-.08.07A1.86 1.86 0 0 0 0 4.48v10.79a1.87 1.87 0 0 0 1.87 1.86h16.24A1.86 1.86 0 0 0 20 15.27V4.47a1.84 1.84 0 0 0-.65-1.37zm-17.52.22H18.1a.93.93 0 0 1 .34.05L10 9.44 1.5 3.37a.91.91 0 0 1 .33-.05zM18.1 16.43H1.83a1.16 1.16 0 0 1-1.16-1.16V4.47a1.12 1.12 0 0 1 .22-.67l8.87 6.35h.32L19 3.8a1.19 1.19 0 0 1 .22.67v10.79a1.15 1.15 0 0 1-1.12 1.17z" fill="#5d7992" data-name="Capa 1"/></svg>

<svg xmlns="http://www.w3.org/2000/svg" viewBox="0 0 20 20"><defs><style>.cls-1{fill:#5d7992;}</style></defs><title>Icons</title><g id="Capa_1-2" data-name="Capa 1"><path class="cls-1" d="M19.35,3.1l-.05,0a1.82,1.82,0,0,0-1.2-.45H1.83a1.79,1.79,0,0,0-1.21.46l0,0-.08.07A1.86,1.86,0,0,0,0,4.48V15.27a1.87,1.87,0,0,0,1.87,1.86H18.11A1.86,1.86,0,0,0,20,15.27V4.47A1.84,1.84,0,0,0,19.35,3.1ZM1.83,3.32H18.1a.93.93,0,0,1,.34.05L10,9.44,1.5,3.37A.91.91,0,0,1,1.83,3.32ZM18.1,16.43H1.83A1.16,1.16,0,0,1,.67,15.27V4.47A1.12,1.12,0,0,1,.89,3.8l8.87,6.35,0,0h0l.07,0h.18l.07,0h0l0,0L19,3.8a1.19,1.19,0,0,1,.22.67V15.26h0A1.15,1.15,0,0,1,18.1,16.43Z"/></g></svg>
